X: 1
K: G
T: Le Diable Vert
Z: 2008 John Chambers <jc:trillian.mit.edu>
S: Printed MS from Debby Knight
M: C|
L: 1/8
DC \
| "G"B,G,B,D GDGB | ed ~d2 dBGB \
| "C"cBAG "D7"FDEF |1,3 "G"GBAG "D7"FE \
:|2,4 "G"GB"D"AF "G"G2 :|
|: GA \
| "Em"[B3E3][BE] [B2E2] ef | "Em"gfeg "Bm"fB~B2 \
| "Em"eBBe BBef | "Em"gB{c}BA "D"BAGA |
| "Em"BEBE B2 ef | "Em"gfeg "Bm"fB~B2 \
| "C"efg{f}e dBGB | "D7"cBAF "G"G2 :|
